polaris-icons/icons/new-icons/UndoMajor.svg

<svg width="20" height="20" viewBox="0 0 20 20" fill="none" xmlns="http://www.w3.org/2000/svg">
<path d="M7.46967 3.71967C7.76256 3.42678 8.23744 3.42678 8.53033 3.71967C8.82322 4.01256 8.82322 4.48744 8.53033 4.78033L6.81066 6.5H10.75C13.5114 6.5 15.75 8.73858 15.75 11.5C15.75 14.2614 13.5114 16.5 10.75 16.5H9.25C8.83579 16.5 8.5 16.1642 8.5 15.75C8.5 15.3358 8.83579 15 9.25 15H10.75C12.683 15 14.25 13.433 14.25 11.5C14.25 9.567 12.683 8 10.75 8H6.81066L8.53033 9.71967C8.82322 10.0126 8.82322 10.4874 8.53033 10.7803C8.23744 11.0732 7.76256 11.0732 7.46967 10.7803L4.46967 7.78033C4.17678 7.48744 4.17678 7.01256 4.46967 6.71967L7.46967 3.71967Z" fill="#4A4A4A"/>
</svg>

<svg viewBox="0 0 20 20" xmlns="http://www.w3.org/2000/svg"><path d="M7.47 3.72a.75.75 0 0 1 1.06 1.06l-1.72 1.72h3.94a5 5 0 0 1 0 10h-1.5a.75.75 0 0 1 0-1.5h1.5a3.5 3.5 0 1 0 0-7h-3.94l1.72 1.72a.75.75 0 1 1-1.06 1.06l-3-3a.75.75 0 0 1 0-1.06l3-3Z" fill="#5C5F62"/></svg>
